X:17
T: Qingshan jian niao bu jin niao
N: C1517
O: China, Guangdong, Danxian
S: II, 406]
R: Xiaodiao, Diaosheng]
M: 2/4
L: 1/16
K: Ab
A2B2e2c2 | B6cB | A2B2e2c2 | B6
cB | A2B2c2Bc | A2A2F8
A2A2BAF2 | E6FEC2z2
E2F2A2F2E2EFE | C2E2F2EFC2C2 | B,8z4

